icons/1_Primary/Wise.svg

<svg width="1024" height="1024" fill="none" xmlns="http://www.w3.org/2000/svg"><g clip-path="url(#a)"><path d="M512 1024c282.77 0 512-229.23 512-512S794.77 0 512 0 0 229.23 0 512s229.23 512 512 512Z" fill="#98DC9A"/><path d="M403.99 433.21 276.85 581.79h227.01l25.52-70.07h-97.27L491.56 443l.19-1.84-38.66-66.52h173.87L492.17 745.5h92.23l162.75-447H326.67l77.29 134.71h.03Z" fill="#fff"/></g><defs><clipPath id="a"><path fill="#fff" d="M0 0h1024v1024H0z"/></clipPath></defs></svg>

<svg width="1024" height="1024" viewBox="0 0 1024 1024" fill="none" xmlns="http://www.w3.org/2000/svg">
<g clip-path="url(#clip0_2_3942)">
<path d="M512 1024C794.77 1024 1024 794.77 1024 512C1024 229.23 794.77 0 512 0C229.23 0 0 229.23 0 512C0 794.77 229.23 1024 512 1024Z" fill="#98DC9A"/>
<path d="M403.99 433.21L276.85 581.79H503.86L529.38 511.72H432.11L491.56 443L491.75 441.16L453.09 374.64H626.96L492.17 745.5H584.4L747.15 298.5H326.67L403.96 433.21H403.99Z" fill="white"/>
</g>
<defs>
<clipPath id="clip0_2_3942">
<rect width="1024" height="1024" fill="white"/>
</clipPath>
</defs>
</svg>
